groups/sulfur/episulfide.svg

<?xml version='1.0' encoding='iso-8859-1'?>
<svg version='1.1' baseProfile='full'
              xmlns='http://www.w3.org/2000/svg'
                      xmlns:rdkit='http://www.rdkit.org/xml'
                      xmlns:xlink='http://www.w3.org/1999/xlink'
                  xml:space='preserve'
width='256px' height='256px' viewBox='0 0 256 256'>
<!-- END OF HEADER -->
<rect style='opacity:1.0;fill:#FFFFFF;stroke:none' width='256.0' height='256.0' x='0.0' y='0.0'> </rect>
<path class='bond-0 atom-0 atom-1' d='M 17.1,118.6 L 129.3,118.2' style='fill:none;fill-rule:evenodd;stroke:#000000;stroke-width:2.0px;stroke-linecap:butt;stroke-linejoin:miter;stroke-opacity:1' />
<path class='bond-1 atom-1 atom-2' d='M 129.3,118.2 L 211.0,164.9' style='fill:none;fill-rule:evenodd;stroke:#000000;stroke-width:2.0px;stroke-linecap:butt;stroke-linejoin:miter;stroke-opacity:1' />
<path class='bond-2 atom-2 atom-3' d='M 226.6,158.2 L 226.3,61.7' style='fill:none;fill-rule:evenodd;stroke:#000000;stroke-width:2.0px;stroke-linecap:butt;stroke-linejoin:miter;stroke-opacity:1' />
<path class='bond-3 atom-3 atom-1' d='M 226.3,61.7 L 129.3,118.2' style='fill:none;fill-rule:evenodd;stroke:#000000;stroke-width:2.0px;stroke-linecap:butt;stroke-linejoin:miter;stroke-opacity:1' />
<path d='M 226.3,66.5 L 226.3,61.7 L 221.4,64.5' style='fill:none;stroke:#000000;stroke-width:2.0px;stroke-linecap:butt;stroke-linejoin:miter;stroke-miterlimit:10;stroke-opacity:1;' />
<path class='atom-1' d='M17.3036,174.671 C21.5117,174.656 21.4915,169.045 17.2834,169.06 C13.0753,169.076 13.0551,163.465 17.2632,163.45 C21.4712,163.434 21.451,157.824 17.243,157.839 C13.0349,157.854 13.0147,152.243 17.2228,152.228 C21.4308,152.213 21.4106,146.602 17.2026,146.617 C12.9945,146.632 12.9743,141.021 17.1824,141.006 C21.3904,140.991 21.3702,135.38 17.1622,135.396 C12.9541,135.411 12.9339,129.8 17.142,129.785 C21.35,129.77 21.3298,124.159 17.1218,124.174 C12.9137,124.189 12.8935,118.578 17.1016,118.563 C21.3096,118.548 21.2894,112.937 17.0814,112.952 C12.8733,112.967 12.8531,107.357 17.0612,107.341 C21.2692,107.326 21.249,101.715 17.041,101.731 C12.8329,101.746 12.8127,96.135 17.0207,96.1198 C21.2288,96.1047 21.2086,90.4939 17.0005,90.509 C12.7925,90.5242 12.7723,84.9133 16.9803,84.8982 C21.1884,84.883 21.1682,79.2722 16.9601,79.2874 C12.7521,79.3025 12.7319,73.6917 16.9399,73.6766 C21.148,73.6614 21.1278,68.0506 16.9197,68.0658 C12.7117,68.0809 12.6915,62.4701 16.8995,62.4549' style='fill:none;stroke:#7F7F7F;stroke-width:2.0px;stroke-linecap:butt;stroke-linejoin:miter;stroke-opacity:1' />
<text x='214.7' y='193.9' class='atom-2' style='font-size:40px;font-style:normal;font-weight:normal;fill-opacity:1;stroke:none;font-family:sans-serif;text-anchor:start;fill:#000000' >S</text>
</svg>

<svg height="256" viewBox="0 0 256 256" width="256" xmlns="http://www.w3.org/2000/svg"><path d="m0 0h256v256h-256z" fill="#fff"/><g fill="none" stroke-width="2"><path d="m17.1 118.6 112.2-.4" stroke="#000"/><path d="m129.3 118.2 81.7 46.7" stroke="#000"/><path d="m226.6 158.2-.3-96.5" stroke="#000"/><path d="m226.3 61.7-97 56.5" stroke="#000"/><path d="m226.3 66.5v-4.8l-4.9 2.8" stroke="#000" stroke-miterlimit="10"/><path d="m17.304 174.671c4.208-.015 4.188-5.626-.021-5.611-4.208.016-4.228-5.595-.02-5.61 4.208-.016 4.188-5.626-.02-5.611s-4.228-5.596-.02-5.611 4.188-5.626-.02-5.611-4.229-5.596-.021-5.611 4.188-5.626-.02-5.61c-4.208.015-4.228-5.596-.02-5.611s4.188-5.626-.02-5.611-4.228-5.596-.02-5.611 4.187-5.626-.021-5.611-4.228-5.595-.02-5.611c4.208-.015 4.188-5.626-.02-5.61-4.208.015-4.228-5.596-.02-5.611s4.188-5.626-.02-5.611-4.229-5.596-.021-5.611 4.188-5.626-.02-5.611c-4.208.016-4.228-5.595-.02-5.61 4.208-.016 4.188-5.626-.02-5.611s-4.228-5.596-.02-5.611" stroke="#7f7f7f"/></g><text font-family="sans-serif" font-size="40" x="214.7" y="193.9">S</text></svg>
